src/shared/assets/done.svg

<svg width="24" height="24" viewBox="0 0 24 24" fill="none" xmlns="http://www.w3.org/2000/svg">
<path d="M11.4652 18.4218C11.0852 18.8987 10.396 18.9693 9.9272 18.5794L3.9268 13.5885C3.45801 13.1986 3.38593 12.4948 3.76594 12.018C4.14595 11.5411 4.83517 11.4706 5.30395 11.8605L10.4568 16.1463L18.3371 6.69899C18.7172 6.22215 19.4064 6.15156 19.8751 6.54147C20.3439 6.93138 20.416 7.63518 20.036 8.11202L11.469 18.425L11.4652 18.4218Z" fill="#52B425"/>
</svg>

<svg xmlns="http://www.w3.org/2000/svg" width="24" height="24" fill="currentColor" viewBox="0 0 24 24">
  <path d="M11.465 18.422c-.38.477-1.069.547-1.538.157l-6-4.99a1.134 1.134 0 0 1-.161-1.571 1.078 1.078 0 0 1 1.538-.158l5.153 4.286 7.88-9.447a1.078 1.078 0 0 1 1.538-.158c.469.39.541 1.094.161 1.571l-8.567 10.313-.004-.003Z"/>
</svg>
